packages/elvis-assets-icons/icons/svg/src/ground_fault-color.svg

<svg width="24" height="24" viewBox="0 0 24 24" fill="none" xmlns="http://www.w3.org/2000/svg">
<path d="M14.249 22C13.835 22 13.499 21.6621 13.499 21.2458V15.2124C13.499 14.7961 13.163 14.4582 12.749 14.4582H11.249C10.835 14.4582 10.499 14.7961 10.499 15.2124V21.2458C10.499 21.6621 10.163 22 9.749 22H3.749C3.335 22 2.999 21.6621 2.999 21.2458V10.246L1.279 11.9754C1.138 12.1172 0.949 12.1956 0.749 12.1956C0.549 12.1956 0.36 12.1172 0.219 11.9744C-0.073 11.6808 -0.073 11.2021 0.219 10.9075L10.409 0.661669C10.833 0.235305 11.398 0 12 0C12.601 0 13.166 0.235305 13.591 0.661669L15.797 2.87997L19.6265 6.73846L20 7.12748C20.292 7.42111 20.292 7.89976 20 8.1944C19.858 8.33719 19.67 8.41563 19.47 8.41563C19.27 8.41563 19.081 8.33719 18.94 8.1944L18.1265 7.36356L12.53 1.72959C12.389 1.58781 12.201 1.50937 12 1.50937C11.799 1.50937 11.611 1.58781 11.469 1.72959L4.499 8.73777V20.4916H8.999V15.2124C8.999 13.9644 10.008 12.9498 11.249 12.9498H12.749C13.99 12.9498 14.999 13.9644 14.999 15.2124V20.4916H16C16 20.4916 17 20.4916 17 21.2458C17 22 16 22 16 22H14.249Z" fill="black"/>
<path fill-rule="evenodd" clip-rule="evenodd" d="M21.1047 14.9087L21.9691 8.81818L17 17.9094H19.8537L18.9893 24L23.9584 14.9087L21.1047 14.9087Z" fill="#29D305"/>
</svg>

<svg width="24" height="24" fill="none" xmlns="http://www.w3.org/2000/svg"><path d="M14.249 22a.752.752 0 01-.75-.754v-6.034a.752.752 0 00-.75-.754h-1.5a.752.752 0 00-.75.754v6.034a.752.752 0 01-.75.754h-6a.752.752 0 01-.75-.754v-11l-1.72 1.73a.744.744 0 01-1.06-.002.76.76 0 010-1.066L10.409.662A2.229 2.229 0 0112 0c.601 0 1.166.235 1.591.662l2.206 2.218 3.83 3.858.373.39a.76.76 0 010 1.066.742.742 0 01-1.06 0l-.814-.83L12.53 1.73a.746.746 0 00-1.061 0l-6.97 7.008v11.754h4.5v-5.28a2.258 2.258 0 012.25-2.262h1.5a2.258 2.258 0 012.25 2.262v5.28H16s1 0 1 .754S16 22 16 22h-1.751z" fill="#000"/><path fill-rule="evenodd" clip-rule="evenodd" d="M21.105 14.909l.864-6.09L17 17.908h2.854L18.989 24l4.97-9.091h-2.854z" fill="#29D305"/></svg>
